symbolic/32x32/apps/fontforge.svg

<svg xmlns="http://www.w3.org/2000/svg" width="32" height="32" version="1">
 <path style="opacity:0.2" d="M 16,3 C 8.244,3 2,9.244 2,17 2,24.756 8.244,31 16,31 23.756,31 30,24.756 30,17 30,9.244 23.756,3 16,3 Z"/>
 <path style="fill:#e4e4e4" d="M 16,2 C 8.244,2 2,8.244 2,16 2,23.756 8.244,30 16,30 23.756,30 30,23.756 30,16 30,8.244 23.756,2 16,2 Z"/>
 <g>
  <path style="fill:#404040" d="m 16.369141,9 c -1.849676,0 -2.973819,2.069019 -3.681641,3.908203 l -0.888672,2.701172 -1.130859,3.621094 C 10.316975,20.249382 10.069708,21.869213 9,22 8.5320799,22.05721 8.5522847,21 8,21 c -0.5522847,0 -1,0.447715 -1,1 0,0.552285 0.4477153,1 1,1 l 0.6308594,0 c 2.1388996,0 3.3587316,-2.690808 4.2753906,-5.652344 l 0.513672,-1.671875 0.820312,-2.638672 C 14.663611,11.946361 14.839858,10.15182 16,10 c 0.467419,-0.061168 0.447715,1 1,1 0.552285,0 1,-0.447715 1,-1 0,-0.5522847 -0.447715,-1 -1,-1 z"/>
  <rect style="fill:#404040" width="8" height="1" x="9" y="14"/>
 </g>
 <g transform="translate(6,0)">
  <path style="fill:#404040" d="m 16.369141,9 c -1.849676,0 -2.973819,2.069019 -3.681641,3.908203 l -0.888672,2.701172 -1.130859,3.621094 C 10.316975,20.249382 10.069708,21.869213 9,22 8.5320799,22.05721 8.5522847,21 8,21 c -0.5522847,0 -1,0.447715 -1,1 0,0.552285 0.4477153,1 1,1 l 0.6308594,0 c 2.1388996,0 3.3587316,-2.690808 4.2753906,-5.652344 l 0.513672,-1.671875 0.820312,-2.638672 C 14.663611,11.946361 14.839858,10.15182 16,10 c 0.467419,-0.061168 0.447715,1 1,1 0.552285,0 1,-0.447715 1,-1 0,-0.5522847 -0.447715,-1 -1,-1 z"/>
  <rect style="fill:#404040" width="8" height="1" x="9" y="14"/>
 </g>
 <path style="fill:#ffffff;opacity:0.2" d="M 16 2 C 8.244 2 2 8.244 2 16 C 2 16.168842 2.0195214 16.33264 2.0253906 16.5 C 2.2891326 8.9794325 8.4128418 3 16 3 C 23.587158 3 29.710867 8.9794325 29.974609 16.5 C 29.980479 16.33264 30 16.168842 30 16 C 30 8.244 23.756 2 16 2 z"/>
</svg>

<svg xmlns="http://www.w3.org/2000/svg" width="32" height="32" version="1"><path style="opacity:.2" d="M16 3C8.244 3 2 9.244 2 17s6.244 14 14 14 14-6.244 14-14S23.756 3 16 3z"/><path style="fill:#e4e4e4" d="M16 2C8.244 2 2 8.244 2 16s6.244 14 14 14 14-6.244 14-14S23.756 2 16 2z"/><path style="fill:#404040" d="M16.37 9c-1.85 0-2.975 2.069-3.683 3.908L11.8 15.61l-1.131 3.621C10.317 20.25 10.07 21.87 9 22c-.468.057-.448-1-1-1a1 1 0 1 0 0 2h.63c2.14 0 3.36-2.69 4.276-5.652l.514-1.672.82-2.639c.424-1.09.6-2.885 1.76-3.037.467-.061.448 1 1 1a1 1 0 1 0 0-2z"/><path style="fill:#404040" d="M9 14h8v1H9z"/><path style="fill:#404040" d="M16.37 9c-1.85 0-2.975 2.069-3.683 3.908L11.8 15.61l-1.131 3.621C10.317 20.25 10.07 21.87 9 22c-.468.057-.448-1-1-1a1 1 0 1 0 0 2h.63c2.14 0 3.36-2.69 4.276-5.652l.514-1.672.82-2.639c.424-1.09.6-2.885 1.76-3.037.467-.061.448 1 1 1a1 1 0 1 0 0-2z" transform="translate(6)"/><path style="fill:#404040" d="M9 14h8v1H9z" transform="translate(6)"/><path style="fill:#fff;opacity:.2" d="M16 2C8.244 2 2 8.244 2 16c0 .169.02.333.025.5C2.29 8.98 8.413 3 16 3s13.71 5.98 13.975 13.5c.005-.167.025-.331.025-.5 0-7.756-6.244-14-14-14z"/></svg>
